dist/svgs/unicons/line/keyhole-square-full.svg

<svg xmlns="http://www.w3.org/2000/svg" viewBox="0 0 24 24"><path d="M11 11.72V15a1 1 0 002 0v-3.28A2 2 0 0014 10a2 2 0 00-4 0 2 2 0 001 1.72zM21 2H3a1 1 0 00-1 1v18a1 1 0 001 1h18a1 1 0 001-1V3a1 1 0 00-1-1zm-1 18H4V4h16z"/></svg>

<svg xmlns="http://www.w3.org/2000/svg" viewBox="0 0 24 24"><path d="M11,11.72V15a1,1,0,0,0,2,0V11.72A2,2,0,0,0,14,10a2,2,0,0,0-4,0A2,2,0,0,0,11,11.72ZM21,2H3A1,1,0,0,0,2,3V21a1,1,0,0,0,1,1H21a1,1,0,0,0,1-1V3A1,1,0,0,0,21,2ZM20,20H4V4H20Z"/></svg>
